X:1
T:Don't Forget the Union Label
M:4/4
L:1/8
K:F
 AB| c=B cd _BA BG| A^G AF C2 FA| c=B cA GF DA| G4 z2 AB| c=B cd _BA BG|\
 A^G AF C2 FA| cA FA cA GA| F4- F z FE| DA AA ^GA BA| AE EF D2 A_A|\
 G=B AG ^FG =FD| C4- C z A2| c=B cd _BA BG| A^G AF C2 FA| c=B cA _BG DE|\
 F4- F z AB| c=B cA _B/2 G3/2 ^FG| A^G AF C2 FA| c=B cA AF EF| G4- G2 AB|\
 c=B cA _B/2 G3/2 ^FG| A^G AF C2 FA| c=B cA _BG DE| F4- F z||

